X:11
T:Trip to Sligo                                                                                     
M:6/8                                                                                               
L:1/8                                                                                               
K:Em                                                                                                
E2 e BGE|D2 d AFD|E2 e BAF|GFE e2 f|\                                                               
gfe dcB|ABG FED|EFG ABc|BGF E3 :|                                                                   
eBe gbe|dAd faf|eBe gbe|f/g/ af gbe|\                                                               
faf gfe|dcB AFD|EFG ABc BGF E3 :|
